www/images/pivot@2x.svg

<svg fill="none" height="55" viewBox="0 0 54 55" width="54" xmlns="http://www.w3.org/2000/svg"><path d="m40.7808 12.881c-.1064-.0015-.212.0184-.3108.0586-.0988.0401-.1889.0996-.2651.1752-.0763.0756-.1371.1658-.1791.2653-.0421.0996-.0644.2066-.0658.3149v1.727c-3.2893-2.7646-7.421-4.2767-11.6856-4.2767-4.2647 0-8.3963 1.5121-11.6856 4.2767v-1.727c-.0028-.2169-.0894-.4239-.241-.5763-.1516-.1523-.356-.2377-.569-.2377-.1068.0007-.2125.0229-.3108.0654-.0984.0425-.1875.1044-.2623.1821s-.1338.1697-.1735.2707-.0594.209-.058.3178l.0486 3.542c.0028.215.0879.4204.2372.5724.1492.1521.3509.2387.562.2416l3.4776.055c.2148 0 .4208-.0869.5727-.2416.152-.1548.2373-.3646.2373-.5834s-.0853-.4286-.2373-.5834c-.1519-.1547-.3579-.2416-.5727-.2416h-1.3878c2.9495-2.3778 6.6009-3.6716 10.3626-3.6716 3.7616 0 7.4131 1.2938 10.3626 3.6716h-1.3824c-.2148 0-.4209.0869-.5728.2416-.1519.1548-.2372.3646-.2372.5834s.0853.4286.2372.5834c.1519.1547.358.2416.5728.2416l3.4776-.055c.2111-.0029.4127-.0895.562-.2416.1493-.152.2344-.3574.2372-.5724l.054-3.542c.0014-.1088-.0183-.2168-.058-.3178-.0398-.101-.0987-.193-.1735-.2707s-.1639-.1396-.2623-.1821c-.0983-.0425-.204-.0647-.3108-.0654z" fill="#000"/><path d="m32.7186 16.368c-.1735-.4248-.4529-.796-.8106-1.0769s-.7813-.4617-1.2288-.5245c-.4474-.0628-.9032-.0054-1.3222.1665-.419.1718-.7866.4523-1.0664.8134-.2958-.33-.669-.5781-1.0847-.7211-.4156-.143-.8601-.1762-1.2918-.0965-.4317.0796-.8364.2696-1.1763.5521-.34.2825-.6039.6483-.7672 1.063l-3.6126 9.0805-.0378-.2035c.0015-.0311.0015-.0624 0-.0935-.1055-.3348-.2764-.6443-.5023-.9101-.226-.2657-.5024-.4822-.8127-.6363-.3102-.1542-.6479-.2428-.9926-.2606s-.6895.0356-1.0134.157c-.6054.2207-1.1076.6645-1.4075 1.2439-.2999.5793-.3757 1.2521-.2125 1.8856l1.9872 10.67-1.3932 3.5145c-.0438.1019-.067.2118-.0681.323-.001.1113.02.2216.0619.3244.0418.1027.1037.1958.1818.2736s.1708.1387.2726.179l9.9306 4.037c.1.0447.2079.0682.3172.0693.1092.0011.2175-.0203.3184-.0629.1009-.0427.1923-.1057.2686-.1852.0764-.0796.1362-.174.1758-.2777l1.3878-3.498 2.9916-1.947c.141-.0922.2504-.2268.3132-.385l3.4236-8.6295c.1285-.3236.1931-.6697.1902-1.0188-.0029-.349-.0734-.694-.2073-1.0152-.1339-.3213-.3286-.6126-.5731-.8572-.2444-.2446-.5338-.4377-.8516-.5683l-.0864-.0385c-.3309-.1445-.6876-.2176-1.0476-.2145.1195-.397.1456-.817.0762-1.2262-.0695-.4092-.2325-.7959-.4759-1.129-.2435-.3331-.5605-.6031-.9254-.7883-.3649-.1851-.7674-.2802-1.1751-.2775l2.2626-5.7035c.2544-.6452.2485-1.3666-.0162-2.0075zm-1.485 1.4135-4.2768 10.7855c-.0684.1822-.0712.3832-.0078.5674.0633.1841.1886.3394.3537.4383s.3593.135.548.1019c.1888-.033.36-.1332.4831-.2826.0491-.0616.0891-.1301.1188-.2035l1.1178-2.7885c.0981-.248.2889-.4461.5304-.5508.2416-.1047.514-.1074.7575-.0074.2435.0999.438.2942.5408.5402s.1054.5235.0073.7715l-1.5768 3.971c-.0574.1025-.0925.2163-.103.3338-.0105.1176.0039.236.0422.3473.0383.1114.0995.2131.1797.2983.0801.0852.1773.1519.2849.1955.1076.0437.2232.0634.3389.0577s.2289-.0366.3318-.0906c.103-.054.1934-.1299.2652-.2225.0717-.0927.1231-.1999.1507-.3145l.3456-.869v-.0275l.405-1.023c.0993-.2461.2903-.4421.5312-.5451.2408-.1031.5119-.1049.754-.0049l.0864.0385c.2416.1012.434.2957.5352.541s.1029.5214.0048.768l-3.2886 8.371-2.9916 1.9525c-.141.0922-.2504.2268-.3132.385l-1.1826 2.9755-8.424-3.4705 1.1772-2.9755c.0565-.141.0734-.2953.0486-.4455l-2.0358-10.945s0-.0495 0-.0715c-.065-.2334-.041-.4833.0671-.6995.1082-.2162.2925-.3828.5161-.4665.2314-.0879.4875-.0795.7129.0234.2253.103.4018.2921.4913.5266l.54 2.915c.0335.1741.1213.3326.2503.4519.1289.1194.2922.1931.4656.2104s.3477-.0228.4969-.1144c.1493-.0915.2655-.2297.3316-.3939l4.6386-11.6875c.0492-.1225.1216-.2339.2131-.3279s.2003-.1687.3202-.2198c.1199-.051.2485-.0775.3784-.0779.13-.0004.2587.0253.3789.0756.2416.1012.434.2957.5352.541s.1029.5214.0048.768l-.648 1.65-3.051 7.6505c-.0695.2004-.0603.4205.0256.6142.086.1937.242.3461.4355.4256.1936.0794.4098.0797.6036.0007.1938-.0789.3501-.231.4365-.4245l3.6828-9.2895.5994-1.485c.0981-.248.2889-.4461.5304-.5508.2416-.1047.514-.1074.7575-.0074.2435.0999.438.2942.5408.5402s.1054.5235.0073.7715z" fill="#000"/><path d="m31.2336 17.7815-4.2768 10.7855c-.0684.1822-.0712.3832-.0078.5674.0633.1841.1886.3394.3537.4383s.3593.135.548.1019c.1888-.033.36-.1332.4831-.2826.0491-.0616.0891-.1301.1188-.2035l1.1178-2.7885c.0981-.248.2889-.4461.5304-.5508.2416-.1047.514-.1074.7575-.0074.2435.0999.438.2942.5408.5402s.1054.5235.0073.7715l-1.5768 3.971c-.0574.1025-.0925.2163-.103.3338-.0105.1176.0039.236.0422.3473.0383.1114.0995.2131.1797.2983.0801.0852.1773.1519.2849.1955.1076.0437.2232.0634.3389.0577s.2289-.0366.3318-.0906c.103-.054.1934-.1299.2652-.2225.0717-.0927.1231-.1999.1507-.3145l.3456-.869v-.0275l.405-1.023c.0993-.2461.2903-.4421.5312-.5451.2408-.1031.5119-.1049.754-.0049l.0864.0385c.2416.1012.434.2957.5352.541s.1029.5214.0048.768l-3.2886 8.371-2.9916 1.9525c-.141.0922-.2504.2268-.3132.385l-1.1826 2.9755-8.424-3.4705 1.1772-2.9755c.0565-.141.0734-.2953.0486-.4455l-2.0358-10.945s0-.0495 0-.0715c-.065-.2334-.041-.4833.0671-.6995.1082-.2162.2925-.3828.5161-.4665.2314-.0879.4875-.0795.7129.0234.2253.103.4018.2921.4913.5266l.54 2.915c.0335.1741.1213.3326.2503.4519.1289.1194.2922.1931.4656.2104s.3477-.0228.4969-.1144c.1493-.0915.2655-.2297.3316-.3939l4.6386-11.6875c.0492-.1225.1216-.2339.2131-.3279s.2003-.1687.3202-.2198c.1199-.051.2485-.0775.3784-.0779.13-.0004.2587.0253.3789.0756.2416.1012.434.2957.5352.541s.1029.5214.0048.768l-.648 1.65-3.051 7.6505c-.0695.2004-.0603.4205.0256.6142.086.1937.242.3461.4355.4256.1936.0794.4098.0797.6036.0007.1938-.0789.3501-.231.4365-.4245l3.6828-9.2895.5994-1.485c.0981-.248.2889-.4461.5304-.5508.2416-.1047.514-.1074.7575-.0074.2435.0999.438.2942.5408.5402s.1054.5235.0073.7715z" fill="#fff"/></svg>

<svg width="54" height="55" viewBox="0 0 54 55" fill="none" xmlns="http://www.w3.org/2000/svg">
<path d="M40.7808 12.881C40.6744 12.8795 40.5688 12.8994 40.47 12.9396C40.3712 12.9797 40.2811 13.0392 40.2049 13.1148C40.1286 13.1904 40.0678 13.2806 40.0258 13.3801C39.9837 13.4797 39.9614 13.5867 39.96 13.695V15.422C36.6707 12.6574 32.539 11.1453 28.2744 11.1453C24.0097 11.1453 19.8781 12.6574 16.5888 15.422V13.695C16.586 13.4781 16.4994 13.2711 16.3478 13.1187C16.1962 12.9664 15.9918 12.881 15.7788 12.881C15.672 12.8817 15.5663 12.9039 15.468 12.9464C15.3696 12.9889 15.2805 13.0508 15.2057 13.1285C15.1309 13.2062 15.0719 13.2982 15.0322 13.3992C14.9925 13.5002 14.9728 13.6082 14.9742 13.717L15.0228 17.259C15.0256 17.474 15.1107 17.6794 15.26 17.8314C15.4092 17.9835 15.6109 18.0701 15.822 18.073L19.2996 18.128C19.5144 18.128 19.7204 18.0411 19.8723 17.8864C20.0243 17.7316 20.1096 17.5218 20.1096 17.303C20.1096 17.0842 20.0243 16.8744 19.8723 16.7196C19.7204 16.5649 19.5144 16.478 19.2996 16.478H17.9118C20.8613 14.1002 24.5127 12.8064 28.2744 12.8064C32.036 12.8064 35.6875 14.1002 38.637 16.478H37.2546C37.0398 16.478 36.8337 16.5649 36.6818 16.7196C36.5299 16.8744 36.4446 17.0842 36.4446 17.303C36.4446 17.5218 36.5299 17.7316 36.6818 17.8864C36.8337 18.0411 37.0398 18.128 37.2546 18.128L40.7322 18.073C40.9433 18.0701 41.1449 17.9835 41.2942 17.8314C41.4435 17.6794 41.5286 17.474 41.5314 17.259L41.5854 13.717C41.5868 13.6082 41.5671 13.5002 41.5274 13.3992C41.4876 13.2982 41.4287 13.2062 41.3539 13.1285C41.2791 13.0508 41.19 12.9889 41.0916 12.9464C40.9933 12.9039 40.8876 12.8817 40.7808 12.881Z" fill="black"/>
<path d="M32.7186 16.368C32.5451 15.9432 32.2657 15.572 31.908 15.2911C31.5503 15.0102 31.1267 14.8294 30.6792 14.7666C30.2318 14.7038 29.776 14.7612 29.357 14.9331C28.938 15.1049 28.5704 15.3854 28.2906 15.7465C27.9948 15.4165 27.6216 15.1684 27.2059 15.0254C26.7903 14.8824 26.3458 14.8492 25.9141 14.9289C25.4824 15.0085 25.0777 15.1985 24.7378 15.481C24.3978 15.7635 24.1339 16.1293 23.9706 16.544L20.358 25.6245L20.3202 25.421C20.3217 25.3899 20.3217 25.3586 20.3202 25.3275C20.2147 24.9927 20.0438 24.6832 19.8179 24.4174C19.5919 24.1517 19.3155 23.9352 19.0052 23.7811C18.695 23.6269 18.3573 23.5383 18.0126 23.5205C17.6679 23.5027 17.3231 23.5561 16.9992 23.6775C16.3938 23.8982 15.8916 24.342 15.5917 24.9214C15.2918 25.5007 15.216 26.1735 15.3792 26.807L17.3664 37.477L15.9732 40.9915C15.9294 41.0934 15.9062 41.2033 15.9051 41.3145C15.9041 41.4258 15.9251 41.5361 15.967 41.6389C16.0088 41.7416 16.0707 41.8347 16.1488 41.9125C16.2269 41.9903 16.3196 42.0512 16.4214 42.0915L26.352 46.1285C26.452 46.1732 26.5599 46.1967 26.6692 46.1978C26.7784 46.1989 26.8867 46.1775 26.9876 46.1349C27.0885 46.0922 27.1799 46.0292 27.2562 45.9497C27.3326 45.8701 27.3924 45.7757 27.432 45.672L28.8198 42.174L31.8114 40.227C31.9524 40.1348 32.0618 40.0002 32.1246 39.842L35.5482 31.2125C35.6767 30.8889 35.7413 30.5428 35.7384 30.1937C35.7355 29.8447 35.665 29.4997 35.5311 29.1785C35.3972 28.8572 35.2025 28.5659 34.958 28.3213C34.7136 28.0767 34.4242 27.8836 34.1064 27.753L34.02 27.7145C33.6891 27.57 33.3324 27.4969 32.9724 27.5C33.0919 27.103 33.118 26.683 33.0486 26.2738C32.9791 25.8646 32.8161 25.4779 32.5727 25.1448C32.3292 24.8117 32.0122 24.5417 31.6473 24.3565C31.2824 24.1714 30.8799 24.0763 30.4722 24.079L32.7348 18.3755C32.9892 17.7303 32.9833 17.0089 32.7186 16.368ZM31.2336 17.7815L26.9568 28.567C26.8884 28.7492 26.8856 28.9502 26.949 29.1344C27.0123 29.3185 27.1376 29.4738 27.3027 29.5727C27.4678 29.6716 27.662 29.7077 27.8507 29.6746C28.0395 29.6416 28.2107 29.5414 28.3338 29.392C28.3829 29.3304 28.4229 29.2619 28.4526 29.1885L29.5704 26.4C29.6685 26.152 29.8593 25.9539 30.1008 25.8492C30.3424 25.7445 30.6148 25.7418 30.8583 25.8418C31.1018 25.9417 31.2963 26.136 31.3991 26.382C31.5019 26.628 31.5045 26.9055 31.4064 27.1535L29.8296 31.1245C29.7722 31.227 29.7371 31.3408 29.7266 31.4583C29.7161 31.5759 29.7305 31.6943 29.7688 31.8056C29.8071 31.917 29.8683 32.0187 29.9485 32.1039C30.0286 32.1891 30.1258 32.2558 30.2334 32.2994C30.341 32.3431 30.4566 32.3628 30.5723 32.3571C30.688 32.3514 30.8012 32.3205 30.9041 32.2665C31.0071 32.2125 31.0975 32.1366 31.1693 32.044C31.241 31.9513 31.2924 31.8441 31.32 31.7295L31.6656 30.8605V30.833L32.0706 29.81C32.1699 29.5639 32.3609 29.3679 32.6018 29.2649C32.8426 29.1618 33.1137 29.16 33.3558 29.26L33.4422 29.2985C33.6838 29.3997 33.8762 29.5942 33.9774 29.8395C34.0786 30.0848 34.0803 30.3609 33.9822 30.6075L30.6936 38.9785L27.702 40.931C27.561 41.0232 27.4516 41.1578 27.3888 41.316L26.2062 44.2915L17.7822 40.821L18.9594 37.8455C19.0159 37.7045 19.0328 37.5502 19.008 37.4L16.9722 26.455C16.9722 26.455 16.9722 26.4055 16.9722 26.3835C16.9072 26.1501 16.9312 25.9002 17.0393 25.684C17.1475 25.4678 17.3318 25.3012 17.5554 25.2175C17.7868 25.1296 18.0429 25.138 18.2683 25.2409C18.4936 25.3439 18.6701 25.533 18.7596 25.7675L19.2996 28.6825C19.3331 28.8566 19.4209 29.0151 19.5499 29.1344C19.6788 29.2538 19.8421 29.3275 20.0155 29.3448C20.1889 29.3621 20.3632 29.322 20.5124 29.2304C20.6617 29.1389 20.7779 29.0007 20.844 28.8365L25.4826 17.149C25.5318 17.0265 25.6042 16.9151 25.6957 16.8211C25.7872 16.7271 25.896 16.6524 26.0159 16.6013C26.1358 16.5503 26.2644 16.5238 26.3943 16.5234C26.5243 16.523 26.653 16.5487 26.7732 16.599C27.0148 16.7002 27.2072 16.8947 27.3084 17.14C27.4096 17.3853 27.4113 17.6614 27.3132 17.908L26.6652 19.558L23.6142 27.2085C23.5447 27.4089 23.5539 27.629 23.6398 27.8227C23.7258 28.0164 23.8818 28.1688 24.0753 28.2483C24.2689 28.3277 24.4851 28.328 24.6789 28.249C24.8727 28.1701 25.029 28.018 25.1154 27.8245L28.7982 18.535L29.3976 17.05C29.4957 16.802 29.6865 16.6039 29.928 16.4992C30.1696 16.3945 30.442 16.3918 30.6855 16.4918C30.929 16.5917 31.1235 16.786 31.2263 17.032C31.3291 17.278 31.3317 17.5555 31.2336 17.8035V17.7815Z" fill="black"/>
<path d="M31.2336 17.7815L26.9568 28.567C26.8884 28.7492 26.8856 28.9502 26.949 29.1344C27.0123 29.3185 27.1376 29.4738 27.3027 29.5727C27.4678 29.6716 27.662 29.7077 27.8507 29.6746C28.0395 29.6416 28.2107 29.5414 28.3338 29.392C28.3829 29.3304 28.4229 29.2619 28.4526 29.1885L29.5704 26.4C29.6685 26.152 29.8593 25.9539 30.1008 25.8492C30.3424 25.7445 30.6148 25.7418 30.8583 25.8418C31.1018 25.9417 31.2963 26.136 31.3991 26.382C31.5019 26.628 31.5045 26.9055 31.4064 27.1535L29.8296 31.1245C29.7722 31.227 29.7371 31.3408 29.7266 31.4583C29.7161 31.5759 29.7305 31.6943 29.7688 31.8056C29.8071 31.917 29.8683 32.0187 29.9485 32.1039C30.0286 32.1891 30.1258 32.2558 30.2334 32.2994C30.341 32.3431 30.4566 32.3628 30.5723 32.3571C30.688 32.3514 30.8012 32.3205 30.9041 32.2665C31.0071 32.2125 31.0975 32.1366 31.1693 32.044C31.241 31.9513 31.2924 31.8441 31.32 31.7295L31.6656 30.8605V30.833L32.0706 29.81C32.1699 29.5639 32.3609 29.3679 32.6018 29.2649C32.8426 29.1618 33.1137 29.16 33.3558 29.26L33.4422 29.2985C33.6838 29.3997 33.8762 29.5942 33.9774 29.8395C34.0786 30.0848 34.0803 30.3609 33.9822 30.6075L30.6936 38.9785L27.702 40.931C27.561 41.0232 27.4516 41.1578 27.3888 41.316L26.2062 44.2915L17.7822 40.821L18.9594 37.8455C19.0159 37.7045 19.0328 37.5502 19.008 37.4L16.9722 26.455C16.9722 26.455 16.9722 26.4055 16.9722 26.3835C16.9072 26.1501 16.9312 25.9002 17.0393 25.684C17.1475 25.4678 17.3318 25.3012 17.5554 25.2175C17.7868 25.1296 18.0429 25.138 18.2683 25.2409C18.4936 25.3439 18.6701 25.533 18.7596 25.7675L19.2996 28.6825C19.3331 28.8566 19.4209 29.0151 19.5499 29.1344C19.6788 29.2538 19.8421 29.3275 20.0155 29.3448C20.1889 29.3621 20.3632 29.322 20.5124 29.2304C20.6617 29.1389 20.7779 29.0007 20.844 28.8365L25.4826 17.149C25.5318 17.0265 25.6042 16.9151 25.6957 16.8211C25.7872 16.7271 25.896 16.6524 26.0159 16.6013C26.1358 16.5503 26.2644 16.5238 26.3943 16.5234C26.5243 16.523 26.653 16.5487 26.7732 16.599C27.0148 16.7002 27.2072 16.8947 27.3084 17.14C27.4096 17.3853 27.4113 17.6614 27.3132 17.908L26.6652 19.558L23.6142 27.2085C23.5447 27.4089 23.5539 27.629 23.6398 27.8227C23.7258 28.0164 23.8818 28.1688 24.0753 28.2483C24.2689 28.3277 24.4851 28.328 24.6789 28.249C24.8727 28.1701 25.029 28.018 25.1154 27.8245L28.7982 18.535L29.3976 17.05C29.4957 16.802 29.6865 16.6039 29.928 16.4992C30.1696 16.3945 30.442 16.3918 30.6855 16.4918C30.929 16.5917 31.1235 16.786 31.2263 17.032C31.3291 17.278 31.3317 17.5555 31.2336 17.8035V17.7815Z" fill="white"/>
</svg>
